src/img/bg--asterisk.svg

<svg width="300" height="287" viewBox="0 0 300 287" fill="none" xmlns="http://www.w3.org/2000/svg">
<path opacity="0.7" d="M99.733 287L30.4406 236.684L90.9212 165.438L0 140.884L26.4352 59.1711L113.351 94.9958L107.343 0H193.057L187.049 94.9958L273.565 59.1711L300 140.884L209.479 165.438L269.559 236.684L200.267 287L150.2 208.105L99.733 287Z" fill="#D7D7D7"/>
</svg>

<svg width="300" height="287" fill="none" xmlns="http://www.w3.org/2000/svg"><path opacity=".7" d="m99.733 287-69.292-50.316 60.48-71.246L0 140.884l26.435-81.713 86.916 35.825L107.343 0h85.714l-6.008 94.996 86.516-35.825L300 140.884l-90.521 24.554 60.08 71.246L200.267 287 150.2 208.105 99.733 287Z" fill="#D7D7D7"/></svg>
